X:1
T: Major James Monroe's Strathspey
C:
R:Strathspey
Q: 128
K:Dm
M:4/4
L:1/16
|:A2|FD3 A,3D F3D A3F|E3c G3c EC3 A3G|F3D A,3D B,3D G,3B|A3G F3E FD3 D3A|
FD3 A,3D F3D A3F|E3c G3c EC3 A3G|F3A D3d ^c3e Aa3|b3g agfe fd3 d2g2|
agfe f3d A3d f3d|c3e g3e c'3g e3c|agfe f3d A3d f3d|A3G F3E FD3 D2g2|
agfe f3d A3d f3d|c3e g3e c'3g e3c|af3 ge3 fd3 e3^c|dB3 A3G FD3 D2:|
